public/favicon.svg

<?xml version="1.0" encoding="UTF-8" standalone="no"?>
<svg
   version="1.1"
   id="Layer_1"
   x="0px"
   y="0px"
   width="100%"
   viewBox="0 0 384 384"
   enable-background="new 0 0 384 384"
   xml:space="preserve"
   sodipodi:docname="4.svg"
   inkscape:version="1.4.2 (ebf0e94, 2025-05-08)"
   xmlns:inkscape="http://www.inkscape.org/namespaces/inkscape"
   xmlns:sodipodi="http://sodipodi.sourceforge.net/DTD/sodipodi-0.dtd"
   xmlns="http://www.w3.org/2000/svg"
   xmlns:svg="http://www.w3.org/2000/svg"><defs
   id="defs1" /><sodipodi:namedview
   id="namedview1"
   pagecolor="#505050"
   bordercolor="#ffffff"
   borderopacity="1"
   inkscape:showpageshadow="0"
   inkscape:pageopacity="0"
   inkscape:pagecheckerboard="1"
   inkscape:deskcolor="#505050"
   inkscape:zoom="2.2550677"
   inkscape:cx="178.48688"
   inkscape:cy="193.12059"
   inkscape:window-width="1920"
   inkscape:window-height="1200"
   inkscape:window-x="0"
   inkscape:window-y="0"
   inkscape:window-maximized="1"
   inkscape:current-layer="Layer_1" />
<path
   fill="#00f050"
   opacity="1"
   stroke="none"
   d="m 131.91904,269.00812 c 20.06976,11.61288 39.88125,22.94632 59.53891,34.54059 3.65387,2.15512 6.49473,2.12222 10.08104,0.0239 23.71931,-13.87781 47.58364,-27.50821 71.27235,-41.43747 4.05298,-2.38324 7.18814,-2.69806 11.40158,-0.19079 16.31842,9.71063 32.88559,19.00265 49.33179,28.49963 5.69711,3.28979 5.61175,4.2717 -0.41095,7.74884 -43.99616,25.40076 -88.01952,50.7547 -131.94249,76.28131 -3.79482,2.20545 -6.63185,1.65821 -10.10793,-0.36206 -46.08865,-26.78653 -92.10532,-53.70248 -138.483025,-79.98065 -7.815819,-4.42853 -10.246628,-9.23685 -10.166439,-17.97015 0.44524,-48.48861 0.203026,-96.9834 0.25404,-145.47602 0.0022,-2.04733 -1.01397,-4.71534 1.251018,-5.98298 2.239739,-1.2535 4.009484,0.9427 5.80473,1.97958 33.179622,19.1636 66.372986,38.30409 99.457106,57.63147 4.32192,2.52481 7.83967,3.29971 12.1865,0.086 4.08754,-3.02197 8.7391,-5.28103 13.0027,-7.79336 -0.55858,-3.2125 -2.86885,-3.84645 -4.63904,-4.87566 -9.50537,-5.52649 -19.08583,-10.92358 -28.60724,-16.42273 -4.99679,-2.88592 -4.94989,-3.93137 0.16026,-6.88509 16.8731,-9.75277 33.80315,-19.40885 50.585,-29.31607 3.33436,-1.96845 5.88479,-1.88595 9.16722,0.0258 28.50294,16.6009 57.09153,33.05482 85.65455,49.55257 5.46448,3.15624 6.01252,2.84504 6.0636,-3.44519 0.14231,-17.53251 0.0985,-17.45584 -15.2337,-26.21444 -24.88057,-14.21313 -49.75733,-28.4355 -74.48667,-42.908603 -4.56199,-2.66996 -8.06828,-2.894699 -12.7532,-0.129318 -23.52241,13.884671 -47.28487,27.362041 -70.89046,41.107071 -3.34391,1.94707 -6.09395,2.4324 -9.67088,0.32176 -16.355606,-9.65093 -32.868248,-19.03557 -49.314128,-28.53379 -6.362744,-3.67477 -6.422566,-4.81272 -0.230462,-8.40011 43.81308,-25.383107 87.66339,-50.7021 131.43651,-76.15387 3.4327,-1.995932 6.11386,-2.043278 9.59058,-0.02622 48.27209,28.005551 96.61452,55.889946 144.96693,83.756789 2.90671,1.6752 4.18033,3.81904 4.17524,7.25081 -0.0761,51.15873 -0.0401,102.31759 -0.0703,153.47643 -0.004,5.96851 -1.06207,6.47272 -6.48633,3.33753 -33.17446,-19.17481 -66.38839,-38.28244 -99.4595,-57.63402 -4.65659,-2.72479 -8.4064,-3.72019 -13.05844,-0.14148 -4.0078,3.08313 -8.61116,5.3921 -12.75595,7.9241 0.64877,2.85942 2.54764,3.41574 4.07666,4.30359 9.65195,5.60455 19.36706,11.10147 28.97777,16.77544 4.76664,2.81413 4.68885,4.31068 -0.16551,7.11419 -16.7316,9.66288 -33.54014,19.19403 -50.19898,28.98029 -3.75774,2.20746 -6.7021,1.52951 -10.16173,-0.48599 -27.78178,-16.18485 -55.62742,-32.26017 -83.47217,-48.3367 -1.95992,-1.13161 -3.82415,-2.63509 -7.00984,-2.71746 -0.57803,7.25507 -0.778112,14.32625 0.0254,21.37391 0.26188,2.29713 2.74505,3.22377 4.59733,4.30108 8.78442,5.10918 17.60047,10.16396 26.71662,15.42751 M 195.78505,138.5025 c -7.48395,4.10861 -15.13908,7.94626 -21.93172,12.9932 0.974,2.16168 2.41896,2.72021 3.69863,3.46026 9.23042,5.33814 18.49295,10.62151 27.68342,16.02745 2.0755,1.22086 5.47577,1.63185 5.58745,4.43019 0.12753,3.19568 -3.51752,3.61928 -5.6801,4.88013 -14.81981,8.64028 -29.80518,16.9989 -44.55696,25.75203 -3.85632,2.28819 -6.76216,2.02196 -10.5063,-0.16138 -27.7749,-16.19668 -55.660822,-32.20306 -83.531496,-48.23507 -1.382027,-0.79499 -2.699902,-2.02663 -4.486542,-1.58211 -1.143913,0.93295 -0.911934,2.17778 -0.912315,3.29742 -0.01293,38.16426 0.01705,76.32854 -0.03781,114.49271 -0.0042,2.91541 1.294251,4.51721 3.690239,5.8942 42.325236,24.32443 84.637516,48.67166 126.882686,73.13464 3.44233,1.99335 6.17073,2.12689 9.65828,0.0945 32.09705,-18.70486 64.28334,-37.2565 96.42736,-55.88092 1.2525,-0.72565 2.80835,-1.15439 3.72348,-3.41629 -4.83808,-3.74954 -10.88034,-5.96664 -15.80918,-9.73074 -5.14288,-3.92762 -9.24636,-2.84055 -14.33581,0.15902 -23.1043,13.61713 -46.46788,26.79383 -69.60047,40.36374 -3.8723,2.27155 -6.8343,2.08808 -10.5671,-0.0762 -34.73349,-20.13806 -69.52497,-40.17663 -104.371182,-60.11905 -3.625083,-2.07461 -5.139999,-4.58609 -5.101882,-8.78595 0.16336,-17.99716 0.04683,-35.99676 0.05782,-53.99547 0.0036,-5.82592 0.971824,-6.38255 5.96894,-3.48673 33.155141,19.21325 66.428571,38.22795 99.356991,57.82234 6.88491,4.09694 12.3112,5.05073 18.76834,-0.0665 4.19265,-3.3226 9.46776,-5.19326 13.66931,-8.80444 -1.51056,-2.24167 -3.38944,-3.03691 -5.09717,-4.01468 -9.39812,-5.38098 -18.81284,-10.73306 -28.22879,-16.08279 -5.59167,-3.17694 -5.62201,-4.1359 -0.0359,-7.39476 15.68392,-9.14977 31.43385,-18.18796 47.03952,-27.46897 3.16858,-1.88443 5.60129,-1.73617 8.69159,0.073 26.16747,15.31889 52.39467,30.53631 78.66023,45.6866 3.36506,1.94101 6.45813,4.59945 10.36032,5.25163 1.23835,-1.388 0.93964,-2.77863 0.94004,-4.06941 0.0118,-37.83097 -0.0302,-75.66201 0.0513,-113.49276 0.007,-3.31087 -1.38852,-5.17919 -4.09003,-6.73507 C 285.22836,94.186295 242.6539,69.625931 200.12309,44.990284 c -2.65629,-1.538631 -4.669,-1.402176 -7.29117,0.122021 -31.25241,18.166282 -62.57463,36.212501 -93.873599,54.298736 -2.549004,1.472959 -5.061821,3.008549 -8.699723,5.175059 6.694962,3.95356 12.580852,7.23011 18.250552,10.84566 3.95207,2.52021 7.30215,2.56794 11.48602,0.0911 23.65072,-14.00143 47.50594,-27.65712 71.18386,-41.613221 3.76814,-2.220985 6.72882,-2.34481 10.54477,-0.05008 13.27603,7.983566 26.75572,15.62854 40.161,23.397049 21.47818,12.446831 42.94751,24.908901 64.45129,37.311351 2.95847,1.70633 4.8497,3.75839 4.83411,7.46241 -0.0779,18.49839 0.0217,36.9975 -0.043,55.49599 -0.0172,4.92088 -1.38483,5.61865 -5.76257,3.10213 -25.99845,-14.94506 -51.92933,-30.00832 -77.98163,-44.85864 -10.25354,-5.84473 -20.06377,-12.49077 -31.59798,-17.26731 z"
   id="path1"
   sodipodi:nodetypes="cssscssscsssscsscsssssscsssssscscscscsscsssscscsscccssscscsccssssscscscsssssscsssscsccssssscscssssssssc" />
<path
   style="fill:#00f050;fill-opacity:1;stroke:none;stroke-opacity:1"
   d="m 103.29739,176.942 c -6.527005,5.93361 -1.34236,43.34455 -1.34236,43.34455 L 90.363477,246.9935 192.3738,312.05521 275.90982,271.49205 317.27621,292.77766 200.80773,361.45391 56.226163,281.93405 48.997085,138.55733 c 0,0 64.607955,29.01413 54.300305,38.38467 z"
   id="path23"
   sodipodi:nodetypes="sccccccccs" /><path
   style="fill:#00f050;fill-opacity:1;stroke:none;stroke-opacity:1"
   d="m 289.40451,219.84421 c 6.52701,-5.93361 1.34236,-43.34455 1.34236,-43.34455 L 302.33843,149.79271 200.32811,84.730994 116.79209,125.29416 75.425698,104.00854 191.89418,35.332294 l 144.58156,79.519856 7.22908,143.37673 c 0,0 -64.60796,-29.01413 -54.30031,-38.38467 z"
   id="path27"
   sodipodi:nodetypes="sccccccccs" /></svg>

<svg version="1.1" id="Layer_1" xmlns="http://www.w3.org/2000/svg"
  xmlns:xlink="http://www.w3.org/1999/xlink" x="0px" y="0px"
  width="100%" viewBox="0 0 384 384" enable-background="new 0 0 384 384" xml:space="preserve">
<path fill="#00f050" opacity="1.000000" stroke="none"
    d="
M131.919037,269.008118
	C151.988800,280.621002 171.800293,291.954437 191.457947,303.548706
	C195.111816,305.703827 197.952682,305.670929 201.538986,303.572632
	C225.258301,289.694824 249.122635,276.064423 272.811340,262.135162
	C276.864319,259.751923 279.999481,259.437103 284.212921,261.944366
	C300.531342,271.654999 317.098511,280.947021 333.544708,290.444000
	C339.241821,293.733795 339.156464,294.715698 333.133759,298.192841
	C289.137604,323.593597 245.114243,348.947540 201.191269,374.474152
	C197.396454,376.679596 194.559418,376.132355 191.083344,374.112091
	C144.994690,347.325562 98.978020,320.409607 52.600315,294.131439
	C44.784496,289.702911 42.353687,284.894592 42.433876,276.161285
	C42.879116,227.672684 42.636902,179.177887 42.687916,130.685272
	C42.690071,128.637939 41.673946,125.969925 43.938934,124.702293
	C46.178673,123.448792 47.948418,125.644989 49.743664,126.681870
	C82.923286,145.845474 116.116646,164.985962 149.200775,184.313339
	C153.522690,186.838150 157.040436,187.613052 161.387268,184.399323
	C165.474808,181.377350 170.126373,179.118286 174.389969,176.605957
	C173.831390,173.393463 171.521118,172.759506 169.750931,171.730301
	C160.245560,166.203812 150.665100,160.806717 141.143692,155.307571
	C136.146896,152.421646 136.193802,151.376205 141.303955,148.422485
	C158.177048,138.669708 175.107101,129.013626 191.888947,119.106407
	C195.223312,117.137962 197.773743,117.220459 201.056168,119.132240
	C229.559113,135.733139 258.147705,152.187057 286.710724,168.684814
	C292.175201,171.841049 292.723236,171.529846 292.774323,165.239624
	C292.916626,147.707108 292.872864,147.783783 277.540619,139.025177
	C252.660049,124.812050 227.783295,110.589676 203.053955,96.116577
	C198.491959,93.446617 194.985672,93.221878 190.300751,95.987259
	C166.778336,109.871933 143.015884,123.349304 119.410286,137.094330
	C116.066383,139.041397 113.316338,139.526733 109.739410,137.416092
	C93.383804,127.765160 76.871162,118.380524 60.425282,108.882301
	C54.062538,105.207535 54.002716,104.069580 60.194820,100.482193
	C104.007904,75.099083 147.858215,49.780090 191.631332,24.328320
	C195.064026,22.332388 197.745193,22.285042 201.221909,24.302101
	C249.494003,52.307652 297.836426,80.192047 346.188843,108.058891
	C349.095551,109.734093 350.369171,111.877930 350.364075,115.309700
	C350.288025,166.468430 350.324005,217.627289 350.293762,268.786133
	C350.290222,274.754639 349.231689,275.258850 343.807434,272.123657
	C310.632965,252.948853 277.419037,233.841217 244.347931,214.489639
	C239.691345,211.764847 235.941528,210.769455 231.289490,214.348160
	C227.281693,217.431290 222.678329,219.740265 218.533539,222.272263
	C219.182312,225.131683 221.081177,225.688004 222.610199,226.575851
	C232.262146,232.180405 241.977264,237.677322 251.587967,243.351288
	C256.354614,246.165421 256.276825,247.661972 251.422455,250.465485
	C234.690857,260.128357 217.882324,269.659515 201.223480,279.445770
	C197.465744,281.653229 194.521378,280.975281 191.061752,278.959778
	C163.279968,262.774933 135.434326,246.699615 107.589584,230.623077
	C105.629662,229.491470 103.765427,227.987991 100.579742,227.905624
	C100.001709,235.160690 99.801628,242.231873 100.605087,249.279526
	C100.866966,251.576660 103.350136,252.503296 105.202423,253.580612
	C113.986839,258.689789 122.802887,263.744568 131.919037,269.008118
M195.785049,138.502502
	C188.301102,142.611115 180.645966,146.448761 173.853333,151.495697
	C174.827332,153.657379 176.272293,154.215912 177.551956,154.955963
	C186.782379,160.294098 196.044907,165.577469 205.235382,170.983414
	C207.310883,172.204269 210.711151,172.615265 210.822830,175.413605
	C210.950363,178.609283 207.305313,179.032883 205.142731,180.293732
	C190.322922,188.934006 175.337555,197.292633 160.585770,206.045761
	C156.729446,208.333954 153.823608,208.067719 150.079468,205.884384
	C122.304573,189.687698 94.418648,173.681320 66.547974,157.649307
	C65.165947,156.854324 63.848072,155.622681 62.061432,156.067200
	C60.917519,157.000153 61.149498,158.244980 61.149117,159.364624
	C61.136189,197.528885 61.166164,235.693161 61.111305,273.857330
	C61.107113,276.772736 62.405556,278.374542 64.801544,279.751526
	C107.126785,304.075958 149.439056,328.423187 191.684235,352.886169
	C195.126556,354.879517 197.854965,355.013062 201.342514,352.980652
	C233.439560,334.275787 265.625854,315.724152 297.769867,297.099731
	C299.022369,296.374084 300.578217,295.945343 301.493347,293.683441
	C296.655273,289.933899 290.613007,287.716797 285.684174,283.952698
	C280.541290,280.025085 276.437805,281.112152 271.348358,284.111725
	C248.244064,297.728851 224.880478,310.905548 201.747894,324.475464
	C197.875595,326.747009 194.913589,326.563538 191.180786,324.399292
	C156.447296,304.261230 121.655823,284.222656 86.809608,264.280243
	C83.184525,262.205627 81.669609,259.694153 81.707726,255.494293
	C81.871086,237.497131 81.754555,219.497528 81.765549,201.498825
	C81.769104,195.672897 82.737373,195.116272 87.734489,198.012085
	C120.889626,217.225342 154.163055,236.240036 187.091476,255.834427
	C193.976395,259.931366 199.402679,260.885162 205.859818,255.767975
	C210.052475,252.445374 215.327576,250.574707 219.529129,246.963531
	C218.018570,244.721863 216.139694,243.926620 214.431961,242.948853
	C205.033844,237.567871 195.619125,232.215790 186.203171,226.866058
	C180.611496,223.689117 180.581161,222.730164 186.167282,219.471298
	C201.851196,210.321533 217.601135,201.283340 233.206802,192.002335
	C236.375381,190.117905 238.808090,190.266159 241.898392,192.075287
	C268.065857,207.394180 294.293060,222.611603 320.558624,237.761887
	C323.923676,239.702896 327.016754,242.361343 330.918945,243.013519
	C332.157288,241.625519 331.858582,240.234894 331.858978,238.944107
	C331.870819,201.113144 331.828796,163.282104 331.910278,125.451347
	C331.917389,122.140480 330.521759,120.272163 327.820251,118.716278
	C285.228363,94.186295 242.653900,69.625931 200.123093,44.990284
	C197.466797,43.451653 195.454086,43.588108 192.831924,45.112305
	C161.579514,63.278587 130.257294,81.324806 98.958321,99.411041
	C96.409317,100.883995 93.896500,102.419586 90.258598,104.586098
	C96.953560,108.539658 102.839447,111.816208 108.509148,115.431763
	C112.461220,117.951973 115.811302,117.999695 119.995171,115.522820
	C143.645889,101.521393 167.501114,87.865700 191.179031,73.909599
	C194.947174,71.688614 197.907852,71.564789 201.723801,73.859520
	C214.999832,81.843086 228.479523,89.488060 241.884796,97.256569
	C263.362976,109.703400 284.832306,122.165474 306.336090,134.567917
	C309.294556,136.274246 311.185791,138.326309 311.170197,142.030334
	C311.092255,160.528717 311.191895,179.027832 311.127228,197.526321
	C311.110016,202.447205 309.742401,203.144974 305.364655,200.628448
	C279.366211,185.683395 253.435333,170.620132 227.383026,155.769806
	C217.129486,149.925079 207.319260,143.279037 195.785049,138.502502
z" />
</svg>
